Origami/64x64/apps/yast-keyboard.svg

<svg xmlns="http://www.w3.org/2000/svg" width="64" height="64" version="1">
 <path style="opacity:0.2" d="m 4.0000004,48.144069 0,1.999972 C 4.0000004,51.728018 5.2495825,53 6.8007604,53 L 57.20004,53 C 58.750017,53 60,51.728018 60,50.144041 l 0,-1.999972 c 0,1.583978 -1.249983,2.85596 -2.79996,2.85596 l -50.3992796,0 c -1.5503779,0 -2.79996,-1.271982 -2.79996,-2.85596 z"/>
 <rect style="fill:#4f4f4f" width="39.999" height="55.999" x="-52" y="-60" rx="2.858" ry="2.8" transform="matrix(0,-1,-1,0,0,0)"/>
 <path style="opacity:0.2" d="m 11,19 a 2.9999571,2.9999571 0 0 0 -3,3 2.9999571,2.9999571 0 0 0 3,3 2.9999571,2.9999571 0 0 0 3,-3 2.9999571,2.9999571 0 0 0 -3,-3 z m 10,0 a 2.9999571,2.9999571 0 0 0 -3,3 2.9999571,2.9999571 0 0 0 3,3 2.9999571,2.9999571 0 0 0 3,-3 2.9999571,2.9999571 0 0 0 -3,-3 z m 10,0 a 2.9999571,2.9999571 0 0 0 -3,3 2.9999571,2.9999571 0 0 0 3,3 2.9999571,2.9999571 0 0 0 3,-3 2.9999571,2.9999571 0 0 0 -3,-3 z m 10,0 a 2.9999571,2.9999571 0 0 0 -3,3 2.9999571,2.9999571 0 0 0 3,3 2.9999571,2.9999571 0 0 0 3,-3 2.9999571,2.9999571 0 0 0 -3,-3 z m 10,0 a 2.9999571,2.9999571 0 0 0 -3,3 2.9999571,2.9999571 0 0 0 3,3 2.9999571,2.9999571 0 0 0 3,-3 2.9999571,2.9999571 0 0 0 -3,-3 z M 17,31 a 2.9999571,2.9999571 0 0 0 -3,3 2.9999571,2.9999571 0 0 0 3,3 2.9999571,2.9999571 0 0 0 3,-3 2.9999571,2.9999571 0 0 0 -3,-3 z m 10,0 a 2.9999571,2.9999571 0 0 0 -3,3 2.9999571,2.9999571 0 0 0 3,3 2.9999571,2.9999571 0 0 0 3,-3 2.9999571,2.9999571 0 0 0 -3,-3 z m 10,0 a 2.9999571,2.9999571 0 0 0 -3,3 2.9999571,2.9999571 0 0 0 3,3 2.9999571,2.9999571 0 0 0 3,-3 2.9999571,2.9999571 0 0 0 -3,-3 z m 10,0 a 2.9999571,2.9999571 0 0 0 -3,3 2.9999571,2.9999571 0 0 0 3,3 2.9999571,2.9999571 0 0 0 3,-3 2.9999571,2.9999571 0 0 0 -3,-3 z M 13.333984,43 C 12.594959,43 12,43.669012 12,44.5 l 0,3 c 0,0.830988 0.594959,1.5 1.333984,1.5 l 37.332032,0 C 51.405041,49 52,48.330988 52,47.5 l 0,-3 C 52,43.669012 51.405041,43 50.666016,43 l -37.332032,0 z"/>
 <rect style="fill:#cccccc" width="39.999" height="6" x="12" y="42" rx="1.334" ry="1.5"/>
 <g style="fill:#cccccc" transform="matrix(1.9999714,0,0,1.9999714,5.760572e-5,7.722e-4)">
  <path d="M 22,10.5 A 1.5,1.5 0 0 1 20.5,12 1.5,1.5 0 0 1 19,10.5 1.5,1.5 0 0 1 20.5,9 1.5,1.5 0 0 1 22,10.5 Z"/>
  <path d="M 7,10.5 A 1.5,1.5 0 0 1 5.5,12 1.5,1.5 0 0 1 4,10.5 1.5,1.5 0 0 1 5.5,9 1.5,1.5 0 0 1 7,10.5 Z"/>
  <path d="M 12,10.5 A 1.5,1.5 0 0 1 10.5,12 1.5,1.5 0 0 1 9,10.5 1.5,1.5 0 0 1 10.5,9 1.5,1.5 0 0 1 12,10.5 Z"/>
  <path d="M 17,10.5 A 1.5,1.5 0 0 1 15.5,12 1.5,1.5 0 0 1 14,10.5 1.5,1.5 0 0 1 15.5,9 1.5,1.5 0 0 1 17,10.5 Z"/>
  <path d="M 27,10.5 A 1.5,1.5 0 0 1 25.5,12 1.5,1.5 0 0 1 24,10.5 1.5,1.5 0 0 1 25.5,9 1.5,1.5 0 0 1 27,10.5 Z"/>
  <path d="M 25,16.5 A 1.5,1.5 0 0 1 23.5,18 1.5,1.5 0 0 1 22,16.5 1.5,1.5 0 0 1 23.5,15 1.5,1.5 0 0 1 25,16.5 Z"/>
  <path d="M 10,16.5 A 1.5,1.5 0 0 1 8.5,18 1.5,1.5 0 0 1 7,16.5 1.5,1.5 0 0 1 8.5,15 1.5,1.5 0 0 1 10,16.5 Z"/>
  <path d="M 15,16.5 A 1.5,1.5 0 0 1 13.5,18 1.5,1.5 0 0 1 12,16.5 1.5,1.5 0 0 1 13.5,15 1.5,1.5 0 0 1 15,16.5 Z"/>
  <path d="M 20,16.5 A 1.5,1.5 0 0 1 18.5,18 1.5,1.5 0 0 1 17,16.5 1.5,1.5 0 0 1 18.5,15 1.5,1.5 0 0 1 20,16.5 Z"/>
 </g>
 <path style="opacity:0.1;fill:#ffffff" d="M 6.8007812 12 C 5.2496034 12 4 13.272691 4 14.855469 L 4 15.855469 C 4 14.272691 5.2496034 13 6.8007812 13 L 57.199219 13 C 58.749196 13 60 14.272691 60 15.855469 L 60 14.855469 C 60 13.272691 58.749196 12 57.199219 12 L 6.8007812 12 z"/>
</svg>

<svg width="64" height="64" version="1" xmlns="http://www.w3.org/2000/svg">
 <path d="m4.0000004 48.144069v1.999972c0 1.583977 1.2495821 2.855959 2.80076 2.855959h50.39928c1.549977 0 2.79996-1.271982 2.79996-2.855959v-1.999972c0 1.583978-1.249983 2.85596-2.79996 2.85596h-50.39928c-1.5503779 0-2.79996-1.271982-2.79996-2.85596z" style="opacity:.2"/>
 <rect transform="matrix(0,-1,-1,0,0,0)" x="-52" y="-60" width="39.999" height="55.999" rx="2.858" ry="2.8" style="fill:#5f7c8a"/>
 <path d="m11 19c-1.6568641-2.4e-5 -3.0000237 1.343136-3 3-2.37e-5 1.656864 1.3431359 3.000024 3 3 1.656864 2.4e-5 3.000024-1.343136 3-3 2.4e-5 -1.656864-1.343136-3.000024-3-3zm10 0c-1.656864-2.4e-5 -3.000024 1.343136-3 3-2.4e-5 1.656864 1.343136 3.000024 3 3 1.656864 2.4e-5 3.000024-1.343136 3-3 2.4e-5 -1.656864-1.343136-3.000024-3-3zm10 0c-1.656864-2.4e-5 -3.000024 1.343136-3 3-2.4e-5 1.656864 1.343136 3.000024 3 3 1.656864 2.4e-5 3.000024-1.343136 3-3 2.4e-5 -1.656864-1.343136-3.000024-3-3zm10 0c-1.656864-2.4e-5 -3.000024 1.343136-3 3-2.4e-5 1.656864 1.343136 3.000024 3 3 1.656864 2.4e-5 3.000024-1.343136 3-3 2.4e-5 -1.656864-1.343136-3.000024-3-3zm10 0c-1.656864-2.4e-5 -3.000024 1.343136-3 3-2.4e-5 1.656864 1.343136 3.000024 3 3 1.656864 2.4e-5 3.000024-1.343136 3-3 2.4e-5 -1.656864-1.343136-3.000024-3-3zm-34 12c-1.656864-2.4e-5 -3.000024 1.343136-3 3-2.4e-5 1.656864 1.343136 3.000024 3 3 1.656864 2.4e-5 3.000024-1.343136 3-3 2.4e-5 -1.656864-1.343136-3.000024-3-3zm10 0c-1.656864-2.4e-5 -3.000024 1.343136-3 3-2.4e-5 1.656864 1.343136 3.000024 3 3 1.656864 2.4e-5 3.000024-1.343136 3-3 2.4e-5 -1.656864-1.343136-3.000024-3-3zm10 0c-1.656864-2.4e-5 -3.000024 1.343136-3 3-2.4e-5 1.656864 1.343136 3.000024 3 3 1.656864 2.4e-5 3.000024-1.343136 3-3 2.4e-5 -1.656864-1.343136-3.000024-3-3zm10 0c-1.656864-2.4e-5 -3.000024 1.343136-3 3-2.4e-5 1.656864 1.343136 3.000024 3 3 1.656864 2.4e-5 3.000024-1.343136 3-3 2.4e-5 -1.656864-1.343136-3.000024-3-3z" style="opacity:.2"/>
 <rect x="12" y="42" width="39.999" height="6" rx="1.334" ry="1.5" style="opacity:.2"/>
 <g transform="matrix(1.9999714,0,0,1.9999714,5.760572e-5,7.722e-4)" style="fill:#cccccc">
  <path d="M 22,10.5 A 1.5,1.5 0 0 1 20.5,12 1.5,1.5 0 0 1 19,10.5 1.5,1.5 0 0 1 20.5,9 1.5,1.5 0 0 1 22,10.5 Z" style="fill:#ffffff"/>
  <path d="M 7,10.5 A 1.5,1.5 0 0 1 5.5,12 1.5,1.5 0 0 1 4,10.5 1.5,1.5 0 0 1 5.5,9 1.5,1.5 0 0 1 7,10.5 Z" style="fill:#ffffff"/>
  <path d="M 12,10.5 A 1.5,1.5 0 0 1 10.5,12 1.5,1.5 0 0 1 9,10.5 1.5,1.5 0 0 1 10.5,9 1.5,1.5 0 0 1 12,10.5 Z" style="fill:#ffffff"/>
  <path d="M 17,10.5 A 1.5,1.5 0 0 1 15.5,12 1.5,1.5 0 0 1 14,10.5 1.5,1.5 0 0 1 15.5,9 1.5,1.5 0 0 1 17,10.5 Z" style="fill:#ffffff"/>
  <path d="M 27,10.5 A 1.5,1.5 0 0 1 25.5,12 1.5,1.5 0 0 1 24,10.5 1.5,1.5 0 0 1 25.5,9 1.5,1.5 0 0 1 27,10.5 Z" style="fill:#ffffff"/>
  <path d="m25 16.5a1.5 1.5 0 0 1 -1.5 1.5 1.5 1.5 0 0 1 -1.5 -1.5 1.5 1.5 0 0 1 1.5 -1.5 1.5 1.5 0 0 1 1.5 1.5z" style="fill:#ffffff"/>
  <path d="M 10,16.5 A 1.5,1.5 0 0 1 8.5,18 1.5,1.5 0 0 1 7,16.5 1.5,1.5 0 0 1 8.5,15 1.5,1.5 0 0 1 10,16.5 Z" style="fill:#ffffff"/>
  <path d="m15 16.5a1.5 1.5 0 0 1 -1.5 1.5 1.5 1.5 0 0 1 -1.5 -1.5 1.5 1.5 0 0 1 1.5 -1.5 1.5 1.5 0 0 1 1.5 1.5z" style="fill:#ffffff"/>
  <path d="m20 16.5a1.5 1.5 0 0 1 -1.5 1.5 1.5 1.5 0 0 1 -1.5 -1.5 1.5 1.5 0 0 1 1.5 -1.5 1.5 1.5 0 0 1 1.5 1.5z" style="fill:#ffffff"/>
 </g>
 <path d="m6.8007812 12c-1.5511778 0-2.8007812 1.272691-2.8007812 2.855469v1c0-1.582778 1.2496034-2.855469 2.8007812-2.855469h50.398438c1.549977 0 2.800781 1.272691 2.800781 2.855469v-1c0-1.582778-1.250804-2.855469-2.800781-2.855469h-50.398438z" style="fill:#ffffff;opacity:.1"/>
</svg>
